X:115
T:Dydd Gwyl Ddewi - St. David's Day
M:4/4
L:1/4
Q:180
C:Trad.
S:Davidsons Musical Miracles 1859
R:Processional
K:D
D/E/ | F F F F/E/ | D D D F/G/ | A A/B/ A F | A3 D/
E/ | F F F F/E/ | D D D F/G/ | A A/B/ A F | A3 A |
B B A/G/ F/E/ | D/E/ F/G/ A F/G/ | A A/B/ A F | A3 A|
B B A/G/ F/E/ | D/E/ F/G/ A A | B E E E | E3 D/E|
F F F F/E/ | D D D F/G/ | A A/B/ A F | A3 A
| B>B A/G/ F/E/ | D/E/ F/G/ A>A | B E E E | E3 |
|
